X:0264
M:2/4
L:1/16
Q:1/4=112
K:D
a4 { g}f2ef |g2f2 e4  |f2d2d2d2 |edcB A2fg|
a4 ({g}f2)ef|g2f2 e4  |f2a2 d2ec|d4   d4 :|

